X:1
T:Title
%%score { ( 1 3 ) | ( 2 4 ) }
L:1/8
M:4/4
K:G
V:1 treble nm="Grand Piano"
V:3 treble 
V:2 bass 
V:4 bass 
V:1
 z4 z2[Q:1/4=112] B2 | [DB]2 [EB]2 [GB]2 [EB]2 | z2 [Fc]4 z2 | [Ac]2 [Ec]2 [Fc]2 [Ec]2 | [DB]6 z2 | %5
 [DB]2 [EB]2 [GB]2 [EB]2 | z2 [Fc]4 z2 | [A,FA]2 [A,DF]2 [A,^CG]2[K:bass] [G,CE]2 | [F,D]6 z2 | %9
 [Ac]2 B2 c2 [D_B^c]2 | z2 [DB]2 z4 | [DAc]2 [D^GB]2 c2 [D_B^c]2 | [Bd-]4 d2 z2 | %13
 [^Ge]2 [Gd]2 [Gc]2 [GB]2 | d2 c4 B2 | A2 G2 F2 E2 |[M:3/4] D6 |[M:1/4] d2 |[M:4/4] d4 e4 | d6 G2 | %20
 [GB]2 [FA]2 z2 [Ac]2 | [DAc]2 [DGB]2 z2 [B,G]2 | [Bd]4 [ce]4 | [Bd]6 [B,G]2 | %24
 [DGB]2 [DGB]2 [DGB]2 [CFA]2 |[M:3/4] [B,G]6 |] %26
V:2
 z4 z2 D2 | [G,,G,]2 [D,G,B,]2 [D,G,B,]2 [D,G,B,]2 | [D,A,]2 [D,A,C]2 [D,A,]2 [D,A,C]2 | %3
 [D,F,]2 [D,A,C]2 [D,A,C]2 [D,A,C]2 | [G,,G,]2 [D,G,]2 [D,G,]2 [D,G,B,D]2 | %5
 [G,,G,]2 [D,G,B,]2 [D,G,B,]2 [D,G,B,]2 | [D,A,]2 [D,A,C]2 [D,A,]2 [D,A,]2 | D,2 D,2 A,,2 A,,2 | %8
 D,6 D2 | z2[K:treble] ^G2 A2[K:bass] D,2 | G,2 G,2 B,2 G,2 | D,2 D,2 A2 D,2 | G,2 G,2 B,2 G,2 | %13
 [E,B,]4 [E,E]2 [E,D]2 | [A,CE]2 [A,CE]4 B,2 | A,2 G,2 F,2 E,2 |[M:3/4] D,6 | %17
[M:1/4][K:treble] [A,CD]2 |[M:4/4] [G,B,G]4 [G,CG]4 | [G,B,G]6 [G,B,]2 | [D,D]2 [D,D]2 z2 [D,D]2 | %21
 G,2 G,2 z2 G,2 | G,4 G,4 | G,6 G,2 | D,2 D,2 D,2 D,2 |[M:3/4] G,6 |] %26
V:3
 x8 | x8 | [Gc]2 z2 C2 [Fc]2 | x8 | z2 B,2 B,2 B2 | x8 | [Gc]2 z2 C2 [Fd]2 | x6[K:bass] x2 | x8 | %9
 x8 | [DBd]2 d2- [DGd]2 [B,D]2 | x8 | D2 D2 [DG]2 [Bd]2 | x8 | x8 | x8 |[M:3/4] x6 |[M:1/4] x2 | %18
[M:4/4] x8 | x8 | x8 | x8 | x8 | x8 | x8 |[M:3/4] x6 |] %26
V:4
 x8 | x8 | x8 | x8 | x8 | x8 | x8 | x8 | x8 | [D,D]6[K:treble][K:bass] z2 | x8 | x8 | x8 | x8 | %14
 x8 | x8 |[M:3/4] x6 |[M:1/4][K:treble] x2 |[M:4/4] x8 | x8 | x8 | x8 | x8 | x8 | x8 |[M:3/4] x6 |] %26

